X:1
T:Title
%%score { 1 | 2 }
L:1/8
M:4/4
K:A
V:1 treble nm="Grand Piano"
V:2 bass 
V:1
 z4 z2[Q:1/4=104] [Ec]>[DB] | [CA]2 [DF]2 [CE]2 [A,C][CE] | [DF]2 [CE]2 [CA]4 | BBBc B2 A[GB] | %4
 [Ac]4 [Ae]2 [Ec]>[DB] | [CA]2 [DF]>[DF] [CE]2 [A,C][B,D] | [CE]2 [CE]>[DF] [CE]4 | %7
 [CA][CA][CA][DB] [Ec]2 [CA][Ec] | [DB]4 [CA]4 | c2 e2 e2 cB | [FA]2 [DF]2 [CE]4 | B2 B2 BBAB | %12
 c2 c2 B4 | c2 e2 e2 cB | [FA]2 [DF]2 [CE]4 | [CA][CA][CA][DB] [Ec]2 [CA][Ec] | [EB]4 [CA]4 |] %17
V:2
 z4 z2 [A,,A,]>[A,,A,] | [A,,A,]2 [A,,A,]2 [A,,A,]2 [A,,E,][A,,A,] | [A,,A,]2 [A,,A,]2 [A,,A,]4 | %3
 [E,G,E][E,G,E][E,G,E][E,A,E] [E,G,E]2 [E,CE][E,E] | [A,E]4 [A,C]2 [A,,A,]>[A,,A,] | %5
 [A,,A,]2 [A,,A,]>[A,,A,] [A,,A,]2 [A,,E,][A,,E,] | [A,,A,]2 [A,,A,]>[A,,A,] [A,,A,]4 | %7
 [A,,A,][A,,A,][A,,A,][A,,A,] [A,,A,]2 [A,,A,][A,,A,] | [E,G,]4 [A,,A,]4 | %9
 [A,EA]2 [A,CA]2 [A,CA]2 [A,EA][A,DE] | [D,D]2 [D,A,]2 [A,,A,]4 | %11
 [E,G,E]2 [E,G,E]2 [E,G,E][E,G,E][E,A,C][E,G,D] | [E,A,E]2 [E,A,E]2 [E,G,E]4 | %13
 [A,E]2 [A,CA]2 [A,CA]2 [A,EA][A,DE] | [D,D]2 [D,A,]2 [A,,A,]4 | %15
 [A,,A,][A,,A,][A,,A,][A,,A,] [A,,A,]2 [A,,A,][A,,A,] | [E,G,]4 [A,,A,]4 |] %17

